X: 236
T: Porter's Reel
B: canberra pickers and fiddlers
B: tunes
M:4/4
L:1/8
Q: 1/4=220
K:D
V:1 
((3ABc|:"D"d)(BA)F (EF2)A|BFAF (E/F/ED)D|(dBA)F (EF)AA|BFAF (FE)D2|!
"A"[e2e2][e2e2](efe)(d|c3)c- c2(cB|A2)AA (fafe)|1"D"d3d-d2(AB):|2"D"d3-dd2ed|]!
|:"D"f3e (faf)(d|A3)A-A2AA|"G"B3A BABd|"Em"g2g2(gagf)|!
"A"[e2e2][e2e2](efe)(d|c3)c- c2(cB|A2)AA (fafe)|1"D"d3d-d2ed:|2"D"d3-dd4|]
% abcbook-tune_id 63ae8f1c806e55430c41a61a
% abcbook-tune_composer_id 
% abcbook-link-0 https://www.youtube.com/watch?v=Im3cTI-jIXc
% abcbook-link-end-at-0 169
% abcbook-boost 0
% abcbook-difficulty 0
% abcbook-tags canberra pickers and fiddlers,old time tunes,© free
% abcbook-tablature 
% abcbook-transpose 
% abcbook-tuning ADAE
% abcbook-lastupdated 1691630381656
% abcbook-src-url https://tunebook.net/scrape/tunes.abc
% abcbook-soundfonts 
% abcbook-repeats 1


